!!! OTL: Berkowitz457
!!! Chapter: 1
!!! Section: IV
!!! Page: 114
!!! Mode: 
!!! Encoder: DJB
**kern
*staff1
*I"Piano
=1-
*clefC4
*k[b-]
*F:
*M2/4
8F/L
8C/J
8F/L
8A/J
=2
16c\LL
16B-\
16G\
16A\JJ
4F/
=3
8G/L
8D/J
8G/L
8B-/J
=4
8d\L
16c\L
16B-\JJ
8A/L
8G/J
=5
8F/L
8C/J
8F/L
8A/J
=6
8G/L
8D/J
8d\L
8B-\J
=7
16c\LL
16B-\
16A\
16G\JJ
8F/L
8E/J
=8
4G/
8F/
8r
==
*-
